assets/img/braze_icons/battery-charging-02.svg

<svg fill="none" height="24" viewBox="0 0 24 24" width="24" xmlns="http://www.w3.org/2000/svg"><g fill="#801ed7"><path d="m10.0541 6.23599c.2615-.40226.3922-.60339.3809-.76985-.0098-.14505-.0823-.27864-.1986-.36594-.1334-.1002-.37327-.1002-.85304-.1002h-2.62466c-.80495-.00001-1.46934-.00002-2.01052.0442-.5621.04592-1.0788.14448-1.56414.39178-.75265.38349-1.36457.99541-1.74806 1.74806-.2473.48534-.34586 1.00204-.39178 1.56414-.044221.54118-.044212 1.20553-.0442 2.01052v2.4826c-.000012.805-.000021 1.4693.0442 2.0105.04592.5621.14448 1.0788.39178 1.5642.38349.7526.99541 1.3645 1.74806 1.748.48534.2473 1.00204.3459 1.56414.3918.5412.0442 1.20556.0442 2.01055.0442h.13048c.31726 0 .47589 0 .61953-.0442.12715-.0391.24523-.1031.34731-.1884.11531-.0964.20177-.2294.37467-.4954l3.42668-5.2719h-4.15728c-.36671 0-.70401-.2007-.87892-.523s-.15938-.7145.04047-1.022z"/><path d="m10.9463 17.764c-.2615.4023-.3922.6034-.3809.7699.0098.145.0823.2786.1986.3659.1334.1002.3733.1002.853.1002h2.6243c.805 0 1.4693 0 2.0105-.0442.5621-.0459 1.0788-.1445 1.5642-.3918.7526-.3835 1.3645-.9954 1.748-1.748.2473-.4854.3459-1.0021.3918-1.5642.0442-.5412.0442-1.2055.0442-2.0105v-2.4826c0-.80498 0-1.46933-.0442-2.01052-.0459-.5621-.1445-1.0788-.3918-1.56414-.3835-.75265-.9954-1.36457-1.748-1.74806-.4854-.2473-1.0021-.34586-1.5642-.39178-.5412-.04422-1.2055-.04421-2.0105-.0442h-.1301c-.3173 0-.4759 0-.6196.04417-.1271.0391-.2452.10318-.3473.18848-.1153.09636-.2017.22936-.3746.49537l-3.4269 5.27208h4.1573c.3667 0 .704.2007.8789.523s.1594.7145-.0404 1.022z"/><path d="m22 10c.5523 0 1 .4477 1 1v2c0 .5523-.4477 1-1 1s-1-.4477-1-1v-2c0-.5523.4477-1 1-1z"/></g></svg>

<svg width="24" height="24" viewBox="0 0 24 24" fill="none" xmlns="http://www.w3.org/2000/svg">
<path d="M10.0541 6.23599C10.3156 5.83373 10.4463 5.6326 10.435 5.46614C10.4252 5.32109 10.3527 5.1875 10.2364 5.1002C10.103 5 9.86313 5 9.38336 5H6.7587C5.95375 4.99999 5.28936 4.99998 4.74818 5.0442C4.18608 5.09012 3.66938 5.18868 3.18404 5.43598C2.43139 5.81947 1.81947 6.43139 1.43598 7.18404C1.18868 7.66938 1.09012 8.18608 1.0442 8.74818C0.999979 9.28936 0.999988 9.95371 1 10.7587V13.2413C0.999988 14.0463 0.999979 14.7106 1.0442 15.2518C1.09012 15.8139 1.18868 16.3306 1.43598 16.816C1.81947 17.5686 2.43139 18.1805 3.18404 18.564C3.66938 18.8113 4.18608 18.9099 4.74818 18.9558C5.28938 19 5.95374 19 6.75873 19H6.88921C7.20647 19 7.3651 19 7.50874 18.9558C7.63589 18.9167 7.75397 18.8527 7.85605 18.7674C7.97136 18.671 8.05782 18.538 8.23072 18.272L11.6574 13.0001H7.50012C7.13341 13.0001 6.79611 12.7994 6.6212 12.4771C6.44629 12.1548 6.46182 11.7626 6.66167 11.4551L10.0541 6.23599Z" fill="#801ED7"/>
<path d="M10.9463 17.764C10.6848 18.1663 10.5541 18.3674 10.5654 18.5339C10.5752 18.6789 10.6477 18.8125 10.764 18.8998C10.8974 19 11.1373 19 11.617 19H14.2413C15.0463 19 15.7106 19 16.2518 18.9558C16.8139 18.9099 17.3306 18.8113 17.816 18.564C18.5686 18.1805 19.1805 17.5686 19.564 16.816C19.8113 16.3306 19.9099 15.8139 19.9558 15.2518C20 14.7106 20 14.0463 20 13.2413V10.7587C20 9.95372 20 9.28937 19.9558 8.74818C19.9099 8.18608 19.8113 7.66938 19.564 7.18404C19.1805 6.43139 18.5686 5.81947 17.816 5.43598C17.3306 5.18868 16.8139 5.09012 16.2518 5.0442C15.7106 4.99998 15.0463 4.99999 14.2413 5H14.1112C13.7939 5 13.6353 5 13.4916 5.04417C13.3645 5.08327 13.2464 5.14735 13.1443 5.23265C13.029 5.32901 12.9426 5.46201 12.7697 5.72802L9.3428 11.0001H13.5001C13.8668 11.0001 14.2041 11.2008 14.379 11.5231C14.5539 11.8454 14.5384 12.2376 14.3386 12.5451L10.9463 17.764Z" fill="#801ED7"/>
<path d="M22 10C22.5523 10 23 10.4477 23 11V13C23 13.5523 22.5523 14 22 14C21.4477 14 21 13.5523 21 13V11C21 10.4477 21.4477 10 22 10Z" fill="#801ED7"/>
</svg>
